svg/car_search_outline.svg

<svg xmlns="http://www.w3.org/2000/svg" viewBox="0 0 24 24"><path d="M10.29 19H6v1c0 .5-.4 1-1 1H4c-.5 0-1-.5-1-1v-8l2.1-6c.2-.6.7-1 1.4-1h11c.6 0 1.2.4 1.4 1l2.01 5.74a6.54 6.54 0 0 0-2.73-1.79L17.1 7H6.8l-1 3h8.11c-1.12.4-2.1 1.1-2.83 2H5v5h4.68c.1.71.32 1.38.61 2M6 14.5c0 .8.7 1.5 1.5 1.5S9 15.3 9 14.5 8.3 13 7.5 13 6 13.7 6 14.5m10.11-2.89c-2.5 0-4.5 2-4.5 4.5s2 4.5 4.5 4.5c.89 0 1.69-.25 2.39-.68L21.61 23 23 21.61l-3.08-3.11c.44-.68.69-1.5.69-2.39 0-2.5-2-4.5-4.5-4.5m0 2c1.39 0 2.5 1.12 2.5 2.5s-1.11 2.5-2.5 2.5-2.5-1.11-2.5-2.5 1.12-2.5 2.5-2.5"/></svg>

<svg xmlns="http://www.w3.org/2000/svg" id="mdi-car-search-outline" viewBox="0 0 24 24"><path d="M10.29 19H6V20C6 20.5 5.6 21 5 21H4C3.5 21 3 20.5 3 20V12L5.1 6C5.3 5.4 5.8 5 6.5 5H17.5C18.1 5 18.7 5.4 18.9 6L20.91 11.74C20.17 10.93 19.24 10.31 18.18 9.95L17.1 7H6.8L5.8 10H13.91C12.79 10.4 11.81 11.1 11.08 12H5V17H9.68C9.78 17.71 10 18.38 10.29 19M6 14.5C6 15.3 6.7 16 7.5 16S9 15.3 9 14.5 8.3 13 7.5 13 6 13.7 6 14.5M16.11 11.61C13.61 11.61 11.61 13.61 11.61 16.11S13.61 20.61 16.11 20.61C17 20.61 17.8 20.36 18.5 19.93L21.61 23L23 21.61L19.92 18.5C20.36 17.82 20.61 17 20.61 16.11C20.61 13.61 18.61 11.61 16.11 11.61M16.11 13.61C17.5 13.61 18.61 14.73 18.61 16.11S17.5 18.61 16.11 18.61 13.61 17.5 13.61 16.11 14.73 13.61 16.11 13.61" /></svg>
